X:075 
T:His Cow or Yours?* (reel)
F:file ID: cre.5/075his_cow
B:CRE5.169 (gan ainm)
M:4/4
Q:180
R:reel
K:D
FG|ADD2 DEFG|AGAB =cAB^c|dcde fded|cAfe dcAG|
"5"ADD2 DEFG|AGAB =cAB^c|dcde fded|cABc d2 :|
|:zg|"9"fddc dfaf|g2ed Bdeg|fddc dfaf|g2ed (3Bcd eg|
"13"fddc dfaf|g2ed Bdeg|fgaf gbag|faeg fd :|
|:ze|"17"f2fd e2ed|dcAB =cAGE|FDD2 DEFG|AB=cA d^cdg|
"21"fdec dcAB|=c2cA GFEF|Dddc dfaf|1 gece dcdg:|2 gece d4|]

%%%

